Origami/64x64/apps/desktop-environment-unity.svg

<svg width="64" height="64" version="1" xmlns="http://www.w3.org/2000/svg">
 <circle cx="32" cy="33" r="28" style="opacity:.2"/>
 <circle cx="32" cy="32" r="28" style="fill:#a43b84"/>
 <path d="m20 35.8s0 11.2 9 11.2h15v-28h-6v21h-7.5c-4.5 0-4.5-5.6-4.5-5.6v-15.4h-6z" style="opacity:.2"/>
 <path d="m20 34.8s0 11.2 9 11.2h15v-28h-6v21h-7.5c-4.5 0-4.5-5.6-4.5-5.6v-15.4h-6z" style="fill:#ffffff"/>
 <path d="M 32 4 A 28 28 0 0 0 4 32 A 28 28 0 0 0 4.0215 32.586 A 28 28 0 0 1 32 5 A 28 28 0 0 1 59.979 32.414 A 28 28 0 0 0 60 32 A 28 28 0 0 0 32 4 z" style="fill:#ffffff;opacity:.1"/>
</svg>

<svg xmlns="http://www.w3.org/2000/svg" width="64" height="64" version="1">
 <circle style="opacity:0.2" cx="32" cy="33" r="28"/>
 <circle style="fill:#a43b84" cx="32" cy="32" r="28"/>
 <path style="opacity:0.2" d="M 20,35.8 C 20,35.8 20,47 29,47 H 44 V 19 H 38 V 40 H 30.5 C 26,40 26,34.4 26,34.4 V 19 H 20 Z"/>
 <path style="fill:#ffffff" d="M 20,34.8 C 20,34.8 20,46 29,46 H 44 V 18 H 38 V 39 H 30.5 C 26,39 26,33.4 26,33.4 V 18 H 20 Z"/>
 <path style="opacity:0.1;fill:#ffffff" d="M 32 4 A 28 28 0 0 0 4 32 A 28 28 0 0 0 4.0215 32.586 A 28 28 0 0 1 32 5 A 28 28 0 0 1 59.979 32.414 A 28 28 0 0 0 60 32 A 28 28 0 0 0 32 4 z"/>
</svg>
